lib/flags/l/KR.svg

<svg xmlns="http://www.w3.org/2000/svg" fill="none" viewBox="0 0 32 24"><mask id="KR_svg__a" width="32" height="24" x="0" y="0" mask-type="alpha" maskUnits="userSpaceOnUse"><path fill="#fff" d="M0 0H32V24H0z"/></mask><g mask="url(#KR_svg__a)"><path fill="#F7FCFF" fill-rule="evenodd" d="M0 0V24H32V0H0Z" clip-rule="evenodd"/><mask id="KR_svg__b" width="32" height="24" x="0" y="0" mask-type="alpha" maskUnits="userSpaceOnUse"><path fill="#fff" fill-rule="evenodd" d="M0 0V24H32V0H0Z" clip-rule="evenodd"/></mask><g mask="url(#KR_svg__b)"><path fill="#3D58DB" fill-rule="evenodd" d="M16 18.2195C19.2027 18.2195 21.799 15.4623 21.799 12.061C21.799 8.65974 19.2027 5.90247 16 5.90247C12.7972 5.90247 10.2009 8.65974 10.2009 12.061C10.2009 15.4623 12.7972 18.2195 16 18.2195Z" clip-rule="evenodd"/><mask id="KR_svg__c" width="12" height="14" x="10" y="5" mask-type="alpha" maskUnits="userSpaceOnUse"><path fill="#fff" fill-rule="evenodd" d="M16 18.2195C19.2027 18.2195 21.799 15.4623 21.799 12.061C21.799 8.65974 19.2027 5.90247 16 5.90247C12.7972 5.90247 10.2009 8.65974 10.2009 12.061C10.2009 15.4623 12.7972 18.2195 16 18.2195Z" clip-rule="evenodd"/></mask><g mask="url(#KR_svg__c)"><path fill="#E31D1C" fill-rule="evenodd" d="M22.0019 12.5328C22.0019 12.5328 21.6764 9.6288 19.2657 9.47116C16.8551 9.31351 16.2051 11.6007 16.066 12.2067C15.9269 12.8127 15.5748 14.4292 13.0366 14.4292C10.4985 14.4292 10.2695 10.3188 10.2695 10.3188V5.47192H22.0019V12.5328Z" clip-rule="evenodd"/></g><path fill="#272727" fill-rule="evenodd" d="M7.29934 2.05212 8.2143 2.87965 3.97404 7.83155 3.05908 7.00403 7.29934 2.05212zM8.80833 3.39128 9.72329 4.21881 5.63503 9.09897 4.72007 8.27145 8.80833 3.39128zM11.2254 5.57447 10.3104 4.74694 6.21078 9.66414 7.12575 10.4917 11.2254 5.57447zM25.3637 1.7052 24.4485 2.52963 26.0359 4.39246 26.9511 3.56803 25.3637 1.7052zM28.1853 5.13184 27.2701 5.95627 28.8576 7.8191 29.7727 6.99467 28.1853 5.13184zM21.4279 5.21282 22.3431 4.38839 23.9305 6.25122 23.0153 7.07565 21.4279 5.21282zM25.1647 7.81503 24.2495 8.63946 25.837 10.5023 26.7521 9.67786 25.1647 7.81503zM22.9955 3.83121 23.9107 3.00678 28.3293 8.38765 27.4141 9.21207 22.9955 3.83121zM26.0549 14.2432 25.1321 13.4155 23.5313 15.2856 24.4541 16.1133 26.0549 14.2432zM23.3636 17.5342 22.4407 16.7065 20.84 18.5766 21.7628 19.4043 23.3636 17.5342zM28.0465 16.0329 28.9693 16.8605 27.3686 18.7306 26.4457 17.903 28.0465 16.0329zM26.4096 20.2278 25.4868 19.4002 23.886 21.2703 24.8089 22.0979 26.4096 20.2278zM23.9665 17.9781 24.8894 18.8058 23.2184 20.8027 22.2956 19.975 23.9665 17.9781zM27.6308 15.4783 26.708 14.6506 25.037 16.6476 25.9599 17.4752 27.6308 15.4783zM6.40657 14.8899 7.32178 14.0646 11.4064 18.745 10.4912 19.5703 6.40657 14.8899zM7.35937 18.9836 8.27457 18.1582 9.99988 20.0538 9.08468 20.8791 7.35937 18.9836zM4.30943 16.6908 3.39423 17.5162 7.50003 22.2595 8.41523 21.4342 4.30943 16.6908zM4.96062 16.1522 5.87582 15.3269 7.37149 17.0808 6.45629 17.9061 4.96062 16.1522z" clip-rule="evenodd"/></g></g></svg>

<svg xmlns="http://www.w3.org/2000/svg" fill="none" viewBox="0 0 32 24"><g mask="url(#KR_svg__KR_-_Korea_(South)"><path fill="#F7FCFF" fill-rule="evenodd" d="M0 0v24h32V0H0z" clip-rule="evenodd"/><g mask="url(#KR_svg__KR_-_Korea_(South)"><path fill="#3D58DB" fill-rule="evenodd" d="M16 18.22c3.203 0 5.799-2.758 5.799-6.159S19.203 5.902 16 5.902c-3.203 0-5.8 2.758-5.8 6.159s2.597 6.159 5.8 6.159z" clip-rule="evenodd"/><g mask="url(#KR_svg__KR_-_Korea_(South)"><path fill="#E31D1C" fill-rule="evenodd" d="M22.002 12.533s-.326-2.904-2.736-3.062c-2.41-.158-3.06 2.13-3.2 2.736-.14.606-.491 2.222-3.03 2.222-2.537 0-2.766-4.11-2.766-4.11V5.472h11.732v7.06z" clip-rule="evenodd"/></g><path fill="#272727" fill-rule="evenodd" d="M7.3 2.052l.914.828-4.24 4.952-.915-.828L7.3 2.052zm1.508 1.34l.915.827-4.088 4.88-.915-.828 4.088-4.88zm2.417 2.183l-.915-.828-4.1 4.917.916.828 4.1-4.917zm14.139-3.87l-.916.825 1.588 1.862.915-.824-1.587-1.863zm2.821 3.427l-.915.824 1.588 1.863.915-.824-1.588-1.863zm-6.757.08l.915-.824 1.587 1.863-.915.825-1.587-1.863zm3.737 2.603l-.915.824 1.587 1.863.915-.824-1.587-1.863zm-2.17-3.984l.916-.824 4.418 5.38-.915.825-4.419-5.38zm3.06 10.412l-.923-.828-1.6 1.87.922.828 1.6-1.87zm-2.691 3.291l-.923-.828-1.601 1.87.923.828 1.6-1.87zm4.683-1.501l.922.827-1.6 1.87-.923-.827 1.6-1.87zm-1.637 4.195l-.923-.828-1.601 1.87.923.828 1.6-1.87zm-2.444-2.25l.923.828-1.67 1.997-.923-.828 1.67-1.997zm3.665-2.5l-.923-.827-1.671 1.997.923.827 1.67-1.997zM6.407 14.89l.915-.825 4.084 4.68-.915.825-4.084-4.68zm.952 4.093l.916-.825L10 20.054l-.915.825-1.726-1.896zm-3.05-2.292l-.915.825L7.5 22.26l.915-.826-4.106-4.743zm.652-.539l.915-.825L7.37 17.08l-.915.825-1.495-1.754z" clip-rule="evenodd"/></g></g></svg>
